!!!COM: Music21
!!!OTL: Caen Folerpas
!!!OMV: pezas_alalas_caen-folerpas_caen-folerpas-partitura.musicxml
**kern
*I"Bagpipes
*I'Bag
*clefG^2
*k[b-e-a-]
*E-:
*M6/8
=1
!LO:TX:a:t=Lento expresivo
*MM38
!LO:TX:a:t=[quarter]=38
2r
8r
8gg
=
4cc
8dd
4ee-
8gg
=
[4.ccc
4ccc]
8ccc
=
4.ccc
8.bb-L
16cccK
8bb-J
=
2gg
8ffL
8ee-J
=
4cc
8dd
4ee-
8gg
=
[4.ccc
4ccc]
8ccc
=
4.ccc
8.bb-L
16dddK
8bb-J
=
2gg
8ggL
8bb-J
!!linebreak:original
=||
4.ccc
8.eee-L
16dddK
8cccJ
=
4.bb-
8.dddL
16cccK
8bb-J
=
4.aa-
4ccc
24bbnLL
24ccc
24bbJJ
=
2gg
8ccL
8ee-J
=
4.ff
4aa-
8ff
=
8.ee-L
16ffK
8ggJ
4.cc
=
4.dd
4ee-
24ddLL
24ee-
24ddJJ
=
2cc
8ggL
8bb-J
!!linebreak:original
=||
4.ccc
8.eee-L
16dddK
8cccJ
=
4.bb-
8.dddL
16cccK
8bb-J
=
4.aa-
4ccc
24bbnLL
24ccc
24bbJJ
=
2gg
8ccL
8ee-J
=
4.ff
4aa-
8ff
!!linebreak:original
=
8.ee-L
16ffK
8ggJ
[4.ccc
=
4.ccc;]
8r
!LO:TX:a:t=Ritardando
*MM20
!LO:TX:a:t=[quarter]=20
8ccL
8ee-J
=
4.dd
4ee-
24ddLL
24ee-
24ddJJ
=
2cc;
8r
8r
==
*-
